rospo-icon-theme-classic-common/symbolic/status/software-update-urgent-symbolic.svg

<svg height="16" width="16" xmlns="http://www.w3.org/2000/svg"><path d="m8 .72-2.19 2.28h-2.81v2.81l-2.28 2.19 2.28 2.22v2.78h2.81l2.19 2.28 2.22-2.28h2.78v-2.78l2.28-2.22-2.28-2.19v-2.81h-2.78zm-1 3.28h2v5h-2zm0 6h2v2h-2z" fill="#5294e2"/></svg>

<svg xmlns="http://www.w3.org/2000/svg" width="16" height="16" version="1.1">
 <path style="fill:#5294e2" class="warning" d="M 8,0.72 5.81,3 H 3 V 5.81 L 0.72,8 3,10.22 V 13 H 5.81 L 8,15.28 10.22,13 H 13 V 10.22 L 15.28,8 13,5.81 V 3 H 10.22 Z M 7,4 H 9 V 9 H 7 Z M 7,10 H 9 V 12 H 7 Z"/>
</svg>
